!! Stephen C. Foster, "Gentle Annie"
!! from 'Stephen Foster Song Book' Dover Publications (New York) pp. 34-35
!! NOTE:  Leading and trailing bars of rest have been omitted.
**kern
*M4/4
*MM70
*E-:
8g
8f
=1
4e-
4e-
4f
8e-
8f
=2
8g
4.ee-
4r
8dd
8cc
=3
4.b-
8cc
8e-
8e-
8.f
16g
=4
2f
4r
8g
8f
=5
4e-
4e-
4f
8e-
8f
=6
8g
4.ee-
4r
8dd
8cc
=7
4b-
8a-
8g
8g
8f
8.e-
16d
=8
2.e-
8b-
8b-
=9
8cc
4.ff
4.ee-
8cc
=10
2b-
4g
8dd
8ee-
=11
4.g
8f
8e-
8e-
8f
8g
=12
2f
4r
8g
8f
=13
4e-
4e-
4f
8e-
8f
=14
8g
4.ee-
4r
8dd
8cc
=15
4b-
8a-
8g
8g
8f
8.e-
16d
=16
2.e-
4r
=17
1r
=18
1r
=19
2.r
8g
8f
=20
4e-
4e-
4f
8e-
8f
=21
8g
4.ee-
4r
8dd
8cc
=22
4.b-
8cc
8e-
8e-
8.f
16g
=23
2f
4r
8g
8f
=24
4e-
4e-
4f
8e-
8f
=25
8g
4.ee-
4r
8dd
8cc
=26
4b-
8a-
8g
8g
8f
8.e-
16d
=27
2.e-
8b-
8b-
=28
8cc
4.ff
4.ee-
8cc
=29
2b-
4g
8dd
8ee-
=30
4.g
8f
8e-
8e-
8f
8g
=31
2f
4r
8g
8f
=32
4e-
4e-
4f
8e-
8f
=33
8g
4.ee-
4r
8dd
8cc
=34
4b-
8a-
8g
8g
8f
8.e-
16d
=35
2.e-
4r
==
*-
